X:2041
T:Blowzabella
R:Jig
C:Trad. 18C
O:England, Lancashire
Z:Paul Hardy's Session Tunebook 2015 (see www.paulhardy.net). Creative Commons cc by-nc-sa licenced.
M:6/8
L:1/8
Q:3/8=100
K:G
B|"G"d2c BAG|"C"c2A "G"B2G|d2c BAG|"D"A2F "G"G2:|
|:z|"G"g2d BAB|"C"cAc "G"BAG|g2d BGB|"D"AdF "G"G2:|
|:G/A/|"G"BAB "C"cBc|"G"d3 d2c|BcB "D"ABA|"G"G3 G2:|
|:z|"G"g2G g2G|"D"ABA "G"B2G|g2G g2G|"D"ABA "G"G2:|
|:G/A/|"G"BAB "C"cBc|"G"d3 d2c|BcB "D"ABA|"G"G3 G2:|

